X:1656
T:Boarischer - schottisch/schottische/scottish
B:"Schule für böhmischen Bock", Band I, R.Lughofer, Eigenverlag, Kremsmünster 1998 
Z:abc transcription Simon Wascher
N:please mail errors to: simon.wascher@chello.at
M:2/4
L:1/16
K:F
FG|A2F2 d2B2|A2F2 FEFA|G2E2 EFGA|B2A2 ACFG|
A2F2 d2B2|A2F2 FEFA|G2E2 EFGA|F2AGF2:|
|:F2|E2F2 G2B2|B2A2 ABc2|c2B2 dcB2|B2A2 cBA2|
E2F2 G2B2|B2A2 ABc2|1c2B2 dcB2|A2cB A2:|2c2B2 dcE2|F2AGFC"Dacapo"||
K:Bb
|:F2|F2B2 BABc|d2B2 B3d|c2F2 d3c|(3B2d2c2 (3B2A2G2|
F2B2 BABc|d2B2 B3d|c2F2 d3c|B2d2B2:|


